X:125
T:(untitled)
T:John Malchair's Third Collection of Tunes
%%VWML:Malchair-3619-p125
F:https://www.vwml.org/record/Malchair/3619/p125
F:www.vwml.org/topics/historic-dance-and-tune-books/Malchair
Z:Eric Conrad Feb 2020
M:none   % no time signature but barred as 3/2
L:1/4
%%score {(S A) (T B)}
V:S clef=treble         % stem up
V:A clef=treble         % stem down
V:T clef=bass octave=-1 % stem up
V:B clef=bass octave=-2 % stem down
K:A
% line 1
V:S
E2 | EA c2 B2 | AF E2 E2 | E[EA] c2 A2 | B4 ||
V:A
C2 | CC E2 D2 | CD C2 C2 | CC C2 C2 | E4 ||
V:T
A2 | AA A2 G2 | AA A2 A2 | AA A2 A2 | G4 ||
V:B
A2 | AA A2 e2 | fd A2 A2 | Ax f2 f2 | e4 ||
% line 2 (starts with a bar line!
V:S
| d2 | cB A2 B2 | cA F2 E2 | EA c2 B2 | A4 |]
V:A
| F2 | ED c2 D2 | EE D2 B,2 | CC E2 D2 | C4 |]
V:T
| A2 | AG A2 G2 | AA A2 G2 | AA A2 G2 | A4 |]
V:B
| d2 | xe f2 e2 | xc d2 e2 | cf e2 e2 | A4 |]
W:\u00a0% Using this W: as a space between tunes
T:St Garmon.
T:John Malchair's Third Collection of Tunes
F:https://www.vwml.org/record/Malchair/3619/p125
F:www.vwml.org/topics/historic-dance-and-tune-books/Malchair
%Z:Eric Conrad Feb 2020
M:3/2
L:1/4
% %%score {(S A) (T B)}
% V:S clef=treble         % stem up
% V:A clef=treble         % stem down
% V:T clef=bass octave=-1 % stem up
% V:B clef=bass octave=-2 % stem down
K:G
% This looks like an exercise by a beginning student.
% The transcription is extremely literal, preserving stem direction.
V:S
D4 [FA]2 | B4 [DGd]2 | [Gc]4 [DGB]2 | [CFA]2 G4 || [DA]4 [DB]2 | [DA]4 [Fd]2 | [Fd]4 [Ec]2 | [Dd]4 |]
V:A
x6 | G4 D2 | E4 x2 | x2 B,4 || x6 | x6 | x6 | x4 |]
V:T
x6 | G4 B,2 | x6 | D2 A,4 || x6 | x6 | x6 | x4 |]
V:B
[GB]4 [da]2 | x6 | c4 g2 | x6 || [df]4 g2 | [fa]4 [da]2 | a4 [Ag]2 | [df]4 |]


